X:154
T:Little Driver
M:6/8
L:1/8
B:Thompson's Compleat Collection of 200 Favourite Country Dances, vol. 1 (London, 1757)
Z:Transcribed and edited by Flynn Titford-Mock, 2007
Z:abc's:AK/Fiddler's Companion
K:G
"tr"G3 ABc|def gdB|"tr"G3 ABc|BGE AFD|"tr"G3 ABc|def gdB|ede AB^c|"tr"d3 D3:|
|:"tr"d3 ede|ABc BAG|"tr"e3 fef|gfe dcB|D3 EFG|ABc def|gdB cAF|G3 G,3:|

